X:1
T: As A Thoiseach
C:
R:Reel
I:speed 232
Q:232
K:Em
M:4/4
L:1/8
|:^c|dE BE dE B^c|dE BE FD D^c|dE BE GB eB|^cA dA FD D^c|
dE BE dE B^c|dE BE FD D^c|dE BE GB eB|^cA dA FD Df|
ge be ge ef|ge be fd df|ge ae fd ad|^cA dA FD Df|
ge be ge ef|ge be fd df|eb gb fb eg|f^c dA FD D:|B4||
